app/assets/images/heroicons/micro/document-text.svg

<svg width="16" height="16" viewBox="0 0 16 16" fill="none" xmlns="http://www.w3.org/2000/svg">
<path fill-rule="evenodd" clip-rule="evenodd" d="M4 2C3.17157 2 2.5 2.67157 2.5 3.5V12.5C2.5 13.3284 3.17157 14 4 14H12C12.8284 14 13.5 13.3284 13.5 12.5V6.62132C13.5 6.2235 13.342 5.84197 13.0607 5.56066L9.93934 2.43934C9.65804 2.15804 9.2765 2 8.87868 2H4ZM5 7.75C5 7.33579 5.33579 7 5.75 7H10.25C10.6642 7 11 7.33579 11 7.75C11 8.16421 10.6642 8.5 10.25 8.5H5.75C5.33579 8.5 5 8.16421 5 7.75ZM5 10.75C5 10.3358 5.33579 10 5.75 10H10.25C10.6642 10 11 10.3358 11 10.75C11 11.1642 10.6642 11.5 10.25 11.5H5.75C5.33579 11.5 5 11.1642 5 10.75Z" fill="black"/>
</svg>

<svg xmlns="http://www.w3.org/2000/svg" viewBox="0 0 16 16" fill="currentColor" aria-hidden="true" data-slot="icon">
  <path fill-rule="evenodd" d="M4 2a1.5 1.5 0 0 0-1.5 1.5v9A1.5 1.5 0 0 0 4 14h8a1.5 1.5 0 0 0 1.5-1.5V6.621a1.5 1.5 0 0 0-.44-1.06L9.94 2.439A1.5 1.5 0 0 0 8.878 2H4Zm1 5.75A.75.75 0 0 1 5.75 7h4.5a.75.75 0 0 1 0 1.5h-4.5A.75.75 0 0 1 5 7.75Zm0 3a.75.75 0 0 1 .75-.75h4.5a.75.75 0 0 1 0 1.5h-4.5a.75.75 0 0 1-.75-.75Z" clip-rule="evenodd"/>
</svg>
